X: 18864
T: In Flight
R: reel
M: 4/4
K: Emajor
|:E3 F EFGA|BB,EA GEEE|BcBG E2 AB|GBEG FEFG|
E3 F EFGA|BEGE FEEE|AGEA GEAE|1 BEGE FEFG:|2 BEGE FECD||
E2 CB, E2 CB,|DECB, EB,CD|EB,B,B, EB,FB,|GB,FB, EB,CD|
E2 CB, E2 CB,|DECB, EB,CD|EB,B,B, EB,FB,|FGBG FECD|
E2 CB, E2 CB,|DECB, EB,CD|EB,B,B, EB,FB,|GB,FB, EB,CE|
F4 FEFG|FEEE FEFG|ABAF GAGE|FBGE FEFG||

